public/space/planet-fill.svg

<svg xmlns="http://www.w3.org/2000/svg" height="572pt" version="1.1" viewBox="0 0 572 572.41935" width="572pt">
<g id="surface1">
<path d="M 572.207031 285.996094 C 572.207031 443.949219 444.160156 571.996094 286.207031 571.996094 C 128.253906 571.996094 0.210938 443.949219 0.210938 285.996094 C 0.210938 128.046875 128.253906 0 286.207031 0 C 444.160156 0 572.207031 128.046875 572.207031 285.996094 Z M 572.207031 285.996094 " style=" stroke:none;fill-rule:nonzero;fill:rgb(60%,43.137255%,31.764706%);fill-opacity:1;" />
<path d="M 538.675781 332.785156 C 510.332031 283.796875 447.648438 267.054688 398.652344 295.398438 C 394.953125 297.539062 391.382812 299.914062 387.980469 302.496094 L 364.3125 320.457031 L 339.570312 291.246094 C 303.730469 248.925781 240.378906 243.671875 198.058594 279.507812 C 194.707031 282.351562 191.539062 285.40625 188.59375 288.660156 C 161.757812 318.289062 155.042969 361.011719 171.511719 397.441406 L 173.601562 402.074219 C 183.730469 424.503906 197.734375 444.964844 214.964844 462.53125 L 320.289062 569.878906 C 424.542969 557.332031 513.554688 488.703125 552.195312 391.070312 C 553.605469 370.722656 548.890625 350.425781 538.675781 332.785156 Z M 538.675781 332.785156 " style=" stroke:none;fill-rule:nonzero;fill:rgb(67.843137%,49.803922%,36.078431%);fill-opacity:1;" />
<path d="M 572.207031 285.996094 C 572.273438 238.757812 560.578125 192.25 538.191406 150.660156 C 526.109375 198.453125 507.726562 244.429688 483.546875 287.378906 C 506.8125 295.335938 526.417969 311.453125 538.714844 332.742188 C 548.882812 350.40625 553.578125 370.691406 552.195312 391.027344 C 564.71875 357.390625 571.484375 321.886719 572.207031 285.996094 Z M 572.207031 285.996094 " style=" stroke:none;fill-rule:nonzero;fill:rgb(54.901961%,38.823529%,28.235294%);fill-opacity:1;" />
<path d="M 66.996094 469.621094 C 128.957031 543.839844 224.3125 581.59375 320.289062 569.90625 L 218.867188 466.53125 C 168.671875 474.984375 117.496094 476.019531 66.996094 469.621094 Z M 66.996094 469.621094 " style=" stroke:none;fill-rule:nonzero;fill:rgb(54.901961%,38.823529%,28.235294%);fill-opacity:1;" />
<path d="M 377.925781 556.878906 C 408.199219 546.632812 436.535156 531.375 461.75 511.730469 L 461.839844 511.660156 C 476.820312 499.996094 490.597656 486.867188 502.984375 472.480469 C 523.835938 448.289062 540.472656 420.773438 552.226562 391.078125 C 555.460938 344.945312 527.285156 302.398438 483.546875 287.378906 C 456.269531 336.699219 417.285156 378.554688 370.035156 409.273438 C 323.863281 438.042969 272.511719 457.488281 218.871094 466.53125 L 320.292969 569.90625 C 339.789062 567.589844 359 563.257812 377.609375 556.984375 Z M 377.925781 556.878906 " style=" stroke:none;fill-rule:nonzero;fill:rgb(63.921569%,44.705882%,30.196078%);fill-opacity:1;" />
</g>
</svg>

<?xml version="1.0" encoding="UTF-8" standalone="no"?>
<svg
   xmlns:dc="http://purl.org/dc/elements/1.1/"
   xmlns:cc="http://creativecommons.org/ns#"
   xmlns:rdf="http://www.w3.org/1999/02/22-rdf-syntax-ns#"
   xmlns:svg="http://www.w3.org/2000/svg"
   xmlns="http://www.w3.org/2000/svg"
   xmlns:sodipodi="http://sodipodi.sourceforge.net/DTD/sodipodi-0.dtd"
   xmlns:inkscape="http://www.inkscape.org/namespaces/inkscape"
   height="598.30011pt"
   version="1.1"
   viewBox="0 0 730.98267 598.73874"
   width="730.98267pt"
   id="svg3034"
   sodipodi:docname="planet-fill.svg"
   inkscape:version="1.0.2 (e86c8708, 2021-01-15)">
  <metadata
     id="metadata3040">
    <rdf:RDF>
      <cc:Work
         rdf:about="">
        <dc:format>image/svg+xml</dc:format>
        <dc:type
           rdf:resource="http://purl.org/dc/dcmitype/StillImage" />
        <dc:title></dc:title>
      </cc:Work>
    </rdf:RDF>
  </metadata>
  <defs
     id="defs3038" />
  <sodipodi:namedview
     pagecolor="#ffffff"
     bordercolor="#666666"
     borderopacity="1"
     objecttolerance="10"
     gridtolerance="10"
     guidetolerance="10"
     inkscape:pageopacity="0"
     inkscape:pageshadow="2"
     inkscape:window-width="1393"
     inkscape:window-height="989"
     id="namedview3036"
     showgrid="false"
     fit-margin-top="0"
     fit-margin-left="0"
     fit-margin-right="0"
     fit-margin-bottom="0"
     inkscape:zoom="0.62026368"
     inkscape:cx="611.54617"
     inkscape:cy="396.61811"
     inkscape:window-x="1579"
     inkscape:window-y="233"
     inkscape:window-maximized="0"
     inkscape:current-layer="surface1" />
  <g
     id="surface1"
     transform="translate(132.3799,4.4523197)">
    <g
       id="g3638"
       transform="rotate(-30,330.76966,285.53132)">
      <g
         id="g3630">
        <path
           d="M 358.03876,9.1667185 C 510.92867,48.83873 602.7103,204.94169 563.03828,357.8316 523.36627,510.7215 367.2643,602.49934 214.37439,562.82733 61.488268,523.15631 -30.294344,367.05711 9.3776665,214.16723 21.4264,167.73325 44.214584,126.93586 74.390442,93.745613 143.57255,17.652648 251.58546,-18.455886 358.03876,9.1667185 Z"
           style="fill:#e0561a;fill-opacity:1;fill-rule:nonzero;stroke:none"
           id="path3023"
           sodipodi:nodetypes="ssssss" />
        <path
           d="m 538.67578,332.78516 c -28.34375,-48.98829 -91.02734,-65.73047 -140.02344,-37.38672 -3.69922,2.14062 -7.26953,4.51562 -10.67187,7.09765 l -23.66797,17.96094 -24.74219,-29.21094 c -35.83984,-42.32031 -99.1914,-47.57422 -141.51172,-11.73828 -3.35156,2.84375 -6.51953,5.89844 -9.46484,9.15235 -26.83594,29.6289 -33.55078,72.35156 -17.08203,108.78125 l 2.08984,4.63281 c 10.12891,22.42969 24.13281,42.89062 41.36328,60.45703 l 105.32422,107.34766 c 104.25391,-12.54688 193.26563,-81.17579 231.90625,-178.8086 1.41016,-20.34765 -3.30469,-40.64453 -13.51953,-58.28515 z m 0,0"
           style="fill:#f06529;fill-opacity:1;fill-rule:nonzero;stroke:none"
           id="path3025" />
        <path
           d="m 572.20703,285.99609 c 0.0664,-47.23828 -11.62891,-93.74609 -34.01562,-135.33593 -12.08204,47.79296 -30.46485,93.76953 -54.64454,136.71875 23.26563,7.95703 42.8711,24.07421 55.16797,45.36328 10.16797,17.66406 14.86328,37.94922 13.48047,58.28515 12.52344,-33.63672 19.28906,-69.14062 20.01172,-105.03125 z m 0,0"
           style="fill:#e0561a;fill-opacity:1;fill-rule:nonzero;stroke:none"
           id="path3027" />
        <path
           d="M 66.996094,469.62109 C 128.95703,543.83984 224.3125,581.59375 320.28906,569.90625 l -101.42187,-103.375 c -50.19532,8.45312 -101.3711,9.48828 -151.871096,3.08984 z m 0,0"
           style="fill:#e0561a;fill-opacity:1;fill-rule:nonzero;stroke:none"
           id="path3029" />
        <path
           d="M 377.92578,556.87891 C 408.19922,546.63281 436.53516,531.375 461.75,511.73047 l 0.0898,-0.0703 c 14.98047,-11.66407 28.75782,-24.79297 41.14453,-39.17969 20.85157,-24.19141 37.48829,-51.70703 49.24219,-81.40235 3.23438,-46.13281 -24.9414,-88.67968 -68.67969,-103.69921 -27.27734,49.32031 -66.26171,91.17578 -113.51171,121.89453 -46.17188,28.76953 -97.52344,48.21484 -151.16407,57.25781 l 101.42188,103.375 c 19.49609,-2.31641 38.70703,-6.64844 57.3164,-12.92188 z m 0,0"
           style="fill:#e0561a;fill-opacity:0.37;fill-rule:nonzero;stroke:none"
           id="path3031" />
      </g>
    </g>
    <ellipse
       style="fill:none;fill-opacity:0.37;stroke:#000000;stroke-width:22.5165;stroke-linecap:round;stroke-miterlimit:4;stroke-dasharray:none"
       id="path3623"
       cx="93.077362"
       cy="305.00818"
       rx="407.78671"
       ry="61.712532"
       transform="rotate(-30)" />
    <path
       style="fill:#e0561a;fill-opacity:1;stroke:none;stroke-width:0.761998;stroke-linecap:butt;stroke-linejoin:miter;stroke-miterlimit:4;stroke-dasharray:none;stroke-opacity:1"
       d="m 15.406199,381.09003 9.019522,27.77493 172.065159,-83.56772 119.97937,-69.27012 150.79513,-98.53373 43.98634,-31.97727 -19.30667,-22.4975 z"
       id="path3640"
       sodipodi:nodetypes="cccccccc" />
    <rect
       style="fill:#e0561a;fill-opacity:1;stroke:none;stroke-width:0.75055;stroke-linecap:round;stroke-miterlimit:4;stroke-dasharray:none"
       id="rect3642"
       width="164.56674"
       height="87.123581"
       x="44.210144"
       y="203.29388"
       transform="rotate(-30)" />
    <path
       sodipodi:type="star"
       style="fill:#000000;fill-opacity:1;stroke:#000000;stroke-width:0.75055;stroke-linecap:round;stroke-miterlimit:4;stroke-dasharray:none;stroke-opacity:1"
       id="path3644"
       sodipodi:sides="3"
       sodipodi:cx="246.15192"
       sodipodi:cy="111.08067"
       sodipodi:r1="41.141685"
       sodipodi:r2="20.570843"
       sodipodi:arg1="2.0607537"
       sodipodi:arg2="3.1079512"
       inkscape:flatsided="false"
       inkscape:rounded="0"
       inkscape:randomized="0"
       d="m 226.79112,147.38216 -1.19841,-35.60958 -1.19841,-35.60959 31.43801,16.76694 31.43801,16.76694 -30.2396,18.84264 z"
       inkscape:transform-center-x="0.042661039"
       inkscape:transform-center-y="10.248459"
       transform="rotate(-28.191312,344.84895,281.84639)" />
  </g>
</svg>
